src/main/resources/icons/PhpIcons/icons/xdebug_logo.svg

<svg xmlns="http://www.w3.org/2000/svg" width="16" height="16" viewBox="0 0 16 16">
  <g fill="none" fill-rule="evenodd">
    <polygon fill="#9E5F20" points="13.263 1 12.19 2.145 11.403 2.07 8.217 5.446 8.021 5.238 7.804 5.468 4.781 2.249 3.729 2.129 2.736 1.068 1.007 2.912 5.603 7.81 5.339 8.092 5.515 8.278 1 13.091 2.728 14.932 3.704 13.893 4.727 13.878 7.75 10.659 8.021 10.948 8.273 10.678 11.216 13.815 12.276 13.941 13.271 15 15 13.16 10.471 8.334 10.699 8.091 10.383 7.755 14.992 2.843"/>
    <polygon fill="#9E5F20" points="12.341 2.59 11.554 2.513 8.216 6.05 8.021 5.842 7.803 6.073 4.597 2.659 3.545 2.538 2.735 1.675 1.575 2.911 6.172 7.811 5.91 8.091 6.084 8.278 1.569 13.09 2.729 14.325 3.535 13.466 4.559 13.452 7.749 10.053 8.019 10.34 8.273 10.072 11.401 13.405 12.461 13.531 13.271 14.394 14.432 13.16 9.904 8.334 10.131 8.091 9.816 7.755 14.424 2.842 13.264 1.606"/>
    <polygon fill="#F26522" points="12.434 2.863 11.647 2.787 8.217 6.422 8.021 6.214 7.333 6.945 3.86 3.244 4.194 2.887 3.436 2.793 2.736 2.047 1.924 2.912 6.521 7.811 6.257 8.091 6.433 8.278 1.917 13.091 2.729 13.955 3.432 13.207 4.455 13.191 7.75 9.682 8.02 9.97 8.744 9.2 12.146 12.826 11.8 13.19 12.572 13.279 13.271 14.024 14.084 13.16 9.555 8.334 9.784 8.091 9.468 7.755 14.077 2.842 13.264 1.977"/>
    <polygon fill="#CCC" points="12.434 2.863 11.647 2.787 8.217 6.422 8.021 6.214 7.333 6.945 3.86 3.244 4.194 2.887 3.436 2.793 2.736 2.047 1.924 2.912 6.521 7.811 6.257 8.091 6.433 8.278 1.917 13.091 2.729 13.955 3.432 13.207 4.455 13.191 7.75 9.682 8.02 9.97 8.744 9.2 12.146 12.826 11.8 13.19 12.572 13.279 13.271 14.024 14.084 13.16 9.555 8.334 9.784 8.091 9.468 7.755 14.077 2.842 13.264 1.977"/>
    <path fill="#CCC" d="M12.4336,2.8626 L11.6466,2.7866 L8.2166,6.4216 L8.0206,6.2136 L7.3326,6.9446 L3.8596,3.2436 L4.1936,2.8866 L3.4356,2.7926 L2.7356,2.0466 L2.3686,2.4356 L6.9326,7.2996 L6.6696,7.5816 L6.8446,7.7676 L6.3986,8.2426 L6.4326,8.2776 L2.3626,12.6146 L3.1406,13.4436 L3.8436,12.6956 L4.8686,12.6806 L8.1626,9.1706 L8.4316,9.4586 L9.1546,8.6886 L12.5586,12.3146 L12.2116,12.6796 L12.9846,12.7676 L13.6836,13.5126 L14.0496,13.1226 L9.5546,8.3336 L9.7836,8.0906 L9.4676,7.7546 L9.9126,7.2786 L9.8806,7.2436 L14.0426,2.8066 L13.2636,1.9766 L12.4336,2.8626 Z M9.0036,9.0976 L12.1726,12.4736 L12.3256,12.3136 L9.1546,8.9356 L9.0036,9.0976 Z"/>
    <polygon fill="#878787" points="13.722 13.487 9.736 9.251 9.743 9.243 9.07 8.524 9.298 8.281 8.982 7.945 9.428 7.469 9.395 7.434 13.55 3.006 13.445 2.893 12.615 3.778 11.827 3.703 8.397 7.338 8.201 7.13 7.513 7.862 4.04 4.16 4.048 4.152 3.634 3.711 3.617 3.709 2.564 2.61 2.205 2.992 6.448 7.49 6.44 7.499 7.114 8.216 6.85 8.498 7.026 8.684 6.58 9.16 6.614 9.195 2.551 13.523 2.656 13.634 3.359 12.885 4.383 12.871 7.677 9.361 7.947 9.649 8.67 8.879 12.074 12.505 12.066 12.513 12.482 12.956 12.498 12.958 13.364 13.869"/>
  </g>
</svg>

<svg xmlns="http://www.w3.org/2000/svg" width="16" height="16" viewBox="0 0 16 16"><rect id="frame" width="16" height="16" fill="none"/><g fill="none" fill-rule="evenodd"><path fill="#9E5F20" d="M13.263 1L12.19 2.145l-.787-.075-3.186 3.376-.196-.208-.217.23-3.023-3.219-1.052-.12-.993-1.061-1.729 1.844L5.603 7.81l-.264.282.176.186L1 13.091l1.728 1.841.976-1.039 1.023-.015 3.023-3.219.271.289.252-.27 2.943 3.137 1.06.126.995 1.059L15 13.16l-4.529-4.826.228-.243-.316-.336 4.609-4.912z"/><path fill="#9E5F20" d="M12.341 2.59l-.787-.077L8.216 6.05l-.195-.208-.218.231-3.206-3.414-1.052-.121-.81-.863-1.16 1.236 4.597 4.9-.262.28.174.187-4.515 4.812 1.16 1.235.806-.859 1.024-.014 3.19-3.399.27.287.254-.268 3.128 3.333 1.06.126.81.863 1.161-1.234-4.528-4.826.227-.243-.315-.336 4.608-4.913-1.16-1.236z"/><path fill="#F26522" d="M12.434 2.863l-.787-.076-3.43 3.635-.196-.208-.688.731L3.86 3.244l.334-.357-.758-.094-.7-.746-.812.865 4.597 4.899-.264.28.176.187-4.516 4.813.812.864.703-.748 1.023-.016L7.75 9.682l.27.288.724-.77 3.402 3.626-.346.364.772.089.699.745.813-.864-4.529-4.826.229-.243-.316-.336 4.609-4.913-.813-.865z"/><path fill="#CCC" d="M12.434 2.863l-.787-.076-3.43 3.635-.196-.208-.688.731L3.86 3.244l.334-.357-.758-.094-.7-.746-.812.865 4.597 4.899-.264.28.176.187-4.516 4.813.812.864.703-.748 1.023-.016L7.75 9.682l.27.288.724-.77 3.402 3.626-.346.364.772.089.699.745.813-.864-4.529-4.826.229-.243-.316-.336 4.609-4.913-.813-.865z"/><path fill="#CCC" d="M12.434 2.863l-.787-.076-3.43 3.635-.196-.208-.688.73-3.473-3.7.334-.357-.758-.094-.7-.746-.367.389L6.933 7.3l-.263.282.175.186-.446.475.034.035-4.07 4.337.778.829.703-.748 1.025-.015 3.294-3.51.269.288.723-.77 3.404 3.626-.347.365.773.088.699.745.366-.39-4.495-4.79.229-.242-.316-.336.445-.476-.032-.035 4.162-4.437-.78-.83-.83.886zm-3.43 6.235l3.169 3.376.153-.16-3.171-3.378-.151.162z"/><path fill="#878787" d="M13.722 13.487L9.736 9.251l.007-.008-.673-.719.228-.243-.316-.336.446-.476-.033-.035 4.155-4.428-.105-.113-.83.885-.788-.075-3.43 3.635-.196-.208-.688.732L4.04 4.16l.008-.008-.414-.441-.017-.002L2.564 2.61l-.359.382L6.448 7.49l-.008.009.674.717-.264.282.176.186-.446.476.034.035-4.063 4.328.105.111.703-.749 1.024-.014 3.294-3.51.27.288.723-.77 3.404 3.626-.008.008.416.443.016.002.866.911z"/></g></svg>
